X:16001
T:Step Lightly Waltz
R:Waltz
C:Bruce Osborne  --  July 7 1994
L:1/8
M:3/4
K:G
B,C|D B,4 D|E C4 E|DG Bc de|d3 B GE|
DF AB cd|c3 B AG|FG AB ce|d4 B,C|
D B,4 D|E C4 E|DG Bc de|d3 B GE|
DF AB cd|c3 B AG|(3cdc B2 A2|G4:|
|:B,C|D B,2 D GA|B D3 GA|B3 c BA|G3 B AG|
F3 A de|f3 d ef|g3 a (3gfe|d4 B,C|
D B,2 D GA|B D3 GA|B3 c BA|G3 B AG|
F3 A de|f3 d ef|[B2g2] [Bg][Bg] [B2a2]|[B4g4]:|
